resources/images/icons/chevron-right.svg

<svg fill="none" height="24" viewBox="0 0 24 24" width="24" xmlns="http://www.w3.org/2000/svg"><path d="m9.29289 18.7071c-.39052-.3905-.39052-1.0237 0-1.4142l5.29291-5.2929-5.29291-5.29289c-.39052-.39053-.39052-1.02369 0-1.41422.39053-.39052 1.02371-.39052 1.41421 0l6 6.00001c.3905.3905.3905 1.0237 0 1.4142l-6 6c-.3905.3905-1.02368.3905-1.41421 0z" fill="#0d0d0d" xmlns="http://www.w3.org/2000/svg"/></svg>

<svg fill="none" viewBox="0 0 24 24" height="24" width="24" xmlns="http://www.w3.org/2000/svg">
<path xmlns="http://www.w3.org/2000/svg" d="M9.29289 18.7071C8.90237 18.3166 8.90237 17.6834 9.29289 17.2929L14.5858 12L9.29289 6.70711C8.90237 6.31658 8.90237 5.68342 9.29289 5.29289C9.68342 4.90237 10.3166 4.90237 10.7071 5.29289L16.7071 11.2929C17.0976 11.6834 17.0976 12.3166 16.7071 12.7071L10.7071 18.7071C10.3166 19.0976 9.68342 19.0976 9.29289 18.7071Z" fill="#0D0D0D"></path>
</svg>
